img/svg/idea.svg

<svg width="78" height="78" viewBox="0 0 78 78" fill="none" xmlns="http://www.w3.org/2000/svg">
<g clip-path="url(#clip0)">
<path d="M26.9571 22.8522C26.9571 23.6936 26.2751 24.3756 25.4337 24.3756C24.5922 24.3756 23.9102 23.6936 23.9102 22.8522C23.9102 22.0107 24.5922 21.3287 25.4337 21.3287C26.2751 21.3287 26.9571 22.0107 26.9571 22.8522Z" fill="white"/>
<path d="M39.1428 9.1413C39.9843 9.1413 40.6663 8.45932 40.6663 7.61786C40.6663 6.7764 39.9843 6.09442 39.1428 6.09442C32.6807 6.09442 26.9012 10.1964 24.7624 16.3021C24.4839 17.0959 24.9022 17.9654 25.6961 18.2433C26.4852 18.52 27.3576 18.1082 27.6379 17.309C29.3494 12.4238 33.9726 9.1413 39.1428 9.1413Z" fill="white"/>
<path d="M4.11324 19.7701C4.11324 20.611 4.79521 21.2936 5.63667 21.2936H11.7304C12.5719 21.2936 13.2539 20.611 13.2539 19.7701C13.2539 18.9287 12.5719 18.2818 11.7304 18.2818H5.63667C4.79521 18.2818 4.11324 18.9287 4.11324 19.7701Z" fill="white"/>
<path d="M74.1909 19.7701C74.1909 18.9287 73.5089 18.2818 72.6674 18.2818H66.5737C65.7322 18.2818 65.0502 18.9287 65.0502 19.7701C65.0502 20.611 65.7322 21.2936 66.5737 21.2936H72.6674C73.5089 21.2936 74.1909 20.611 74.1909 19.7701Z" fill="white"/>
<path d="M10.8896 37.8473L16.1663 34.8005C16.8953 34.3797 17.1446 33.4478 16.7239 32.7194C16.3031 31.9904 15.3718 31.7405 14.6428 32.1618L9.36612 35.2087C8.63713 35.6294 8.38779 36.5607 8.80852 37.2897C9.23044 38.0205 10.163 38.2663 10.8896 37.8473Z" fill="white"/>
<path d="M67.4163 1.69309L62.139 4.73997C61.4106 5.1607 61.1607 6.09262 61.5814 6.82102C62.0034 7.55239 62.9359 7.79816 63.6625 7.37862L68.9398 4.33174C69.6682 3.91101 69.9181 2.97969 69.4974 2.2507C69.076 1.5223 68.1447 1.27236 67.4163 1.69309Z" fill="white"/>
<path d="M8.80852 2.25074C8.38779 2.97973 8.63713 3.91105 9.36612 4.33178L14.6428 7.37866C15.37 7.7982 16.3025 7.55124 16.7239 6.82106C17.1446 6.09266 16.8953 5.16075 16.1663 4.74001L10.8896 1.69313C10.1612 1.273 9.22925 1.52234 8.80852 2.25074Z" fill="white"/>
<path d="M67.4163 37.8474C68.1429 38.2669 69.0754 38.02 69.4974 37.2898C69.9181 36.5608 69.6682 35.6295 68.9398 35.2087L63.6625 32.1619C62.9341 31.7411 62.0022 31.9905 61.5814 32.7195C61.1607 33.4478 61.4106 34.3798 62.139 34.8005L67.4163 37.8474Z" fill="white"/>
<path d="M7.46301 77.3979C7.75104 77.7776 8.19974 78.0002 8.67581 78.0002H69.6128C70.0889 78.0002 70.5382 77.7776 70.8262 77.3979C71.1142 77.0188 71.2083 76.5267 71.0803 76.0679C71.0803 76.0679 67.5163 63.2746 67.5133 63.265C66.7332 60.6639 64.6063 58.6608 61.9623 58.0377L44.5981 53.953C46.9159 52.2213 48.2847 49.541 48.2847 46.6173C48.2847 43.8156 49.7087 40.1141 52.1504 38.2342C57.3569 34.2221 60.6025 27.9088 60.4674 20.9081C60.2502 9.60131 50.7656 0.166694 39.4588 0.00244819C27.5486 -0.171319 17.8165 9.41266 17.8165 21.3288C17.8165 28.0629 20.8979 34.2614 26.2698 38.3348C28.5561 40.0671 30.004 43.6525 30.004 46.6173C30.004 49.6172 31.4566 52.2838 33.6959 53.9518C14.5583 58.4543 27.9711 55.2985 16.3263 58.0377C13.6823 58.6608 11.5555 60.6633 10.7753 63.265C10.7723 63.2746 7.20831 76.0679 7.20831 76.0679C7.08037 76.5267 7.17439 77.0188 7.46301 77.3979ZM39.1446 61.062L35.3259 56.6982L39.1446 55.7996L42.9627 56.6982L39.1446 61.062ZM31.969 57.4879L36.8541 63.071L30.6985 67.1748L27.1356 58.6251L31.969 57.4879ZM46.3203 57.4879L51.153 58.6251L47.5902 67.1748L41.4345 63.071L46.3203 57.4879ZM45.2193 47.0743C44.9896 50.1902 42.392 52.7111 39.1446 52.7111C35.9418 52.7111 33.3103 50.2271 33.0705 47.0743H45.2193ZM28.1104 35.9068C23.505 32.4142 20.8633 27.1006 20.8633 21.3288C20.8633 11.1366 29.1857 2.89877 39.4148 3.04933C48.991 3.18858 57.2373 11.3937 57.4211 20.9664C57.5342 26.8275 54.9354 32.2416 50.2913 35.8205C47.8014 37.7373 46.1239 40.9217 45.5062 44.0281H40.6681V30.8527L43.8006 27.8302C44.4058 27.2464 44.4231 26.2818 43.8387 25.676C43.2549 25.0708 42.2903 25.0535 41.6851 25.6379L39.144 28.0891L36.6036 25.6379C35.9978 25.0535 35.0337 25.0708 34.4493 25.676C33.8655 26.2818 33.8828 27.2464 34.488 27.8302L37.6206 30.8527V44.0281H32.7938C32.1588 40.7312 30.4021 37.6433 28.1104 35.9068ZM13.6978 64.1273C14.1691 62.5724 15.4426 61.3762 17.0244 61.0037L24.1298 59.3321L28.5978 70.0551C28.9667 70.9412 30.0534 71.2673 30.849 70.7364L39.1446 65.2062L47.4396 70.7364C48.2353 71.2673 49.3219 70.9412 49.6909 70.0551L54.1588 59.3321L61.2643 61.0037C62.846 61.3762 64.1195 62.5724 64.5908 64.1273L67.6068 74.9533H10.6819L13.6978 64.1273Z" fill="white"/>
</g>
<defs>
<clipPath id="clip0">
<rect width="78" height="78" fill="white"/>
</clipPath>
</defs>
</svg>

<svg width="78" height="78" viewBox="0 0 78 78" fill="none" xmlns="http://www.w3.org/2000/svg"><g clip-path="url(#a)" fill="#fff"><path d="M26.957 22.852a1.523 1.523 0 1 1-3.047 0 1.523 1.523 0 0 1 3.047 0zM39.143 9.141a1.523 1.523 0 1 0 0-3.047 15.26 15.26 0 0 0-14.38 10.208 1.523 1.523 0 1 0 2.875 1.007 12.209 12.209 0 0 1 11.505-8.168zM4.113 19.77c0 .841.682 1.524 1.524 1.524h6.093c.842 0 1.524-.683 1.524-1.524s-.682-1.488-1.524-1.488H5.637c-.842 0-1.524.647-1.524 1.488zm70.077 0c0-.841-.681-1.488-1.523-1.488h-6.093c-.842 0-1.524.647-1.524 1.488s.682 1.524 1.524 1.524h6.093c.842 0 1.524-.683 1.524-1.524zm-63.3 18.077l5.276-3.047a1.523 1.523 0 1 0-1.523-2.638l-5.277 3.047a1.523 1.523 0 1 0 1.524 2.638zM67.416 1.693L62.14 4.74a1.524 1.524 0 0 0 1.523 2.639l5.278-3.047a1.524 1.524 0 0 0-1.524-2.639zM8.809 2.25a1.524 1.524 0 0 0 .557 2.082l5.277 3.047a1.524 1.524 0 0 0 1.523-2.639L10.89 1.693a1.524 1.524 0 0 0-2.081.558zm58.607 35.597a1.524 1.524 0 0 0 1.524-2.638l-5.277-3.047a1.523 1.523 0 1 0-1.524 2.639l5.277 3.046z"/><path d="M7.463 77.398c.288.38.737.602 1.213.602h60.937a1.523 1.523 0 0 0 1.467-1.932l-3.567-12.803a7.64 7.64 0 0 0-5.55-5.227l-17.365-4.085a9.11 9.11 0 0 0 3.687-7.336c0-2.801 1.424-6.503 3.865-8.383 5.207-4.012 8.453-10.325 8.317-17.326C60.25 9.601 50.766.167 39.46.002 27.549-.17 17.816 9.412 17.816 21.33c0 6.734 3.082 12.932 8.454 17.006 2.286 1.732 3.734 5.318 3.734 8.282 0 3 1.453 5.667 3.692 7.335l-17.37 4.086a7.64 7.64 0 0 0-5.55 5.227c-.004.01-3.568 12.803-3.568 12.803a1.52 1.52 0 0 0 .255 1.33zm31.682-16.336l-3.82-4.364 3.82-.898 3.818.898-3.818 4.364zm-7.176-3.574l4.885 5.583-6.155 4.104-3.563-8.55 4.833-1.137zm14.351 0l4.833 1.137-3.563 8.55-6.156-4.104 4.886-5.583zm-1.1-10.414c-.23 3.116-2.828 5.637-6.075 5.637-3.203 0-5.835-2.484-6.075-5.637h12.15zM28.11 35.907c-4.605-3.493-7.247-8.806-7.247-14.578 0-10.192 8.323-18.43 18.552-18.28 9.576.14 17.822 8.345 18.006 17.917.113 5.861-2.486 11.276-7.13 14.855-2.49 1.916-4.167 5.1-4.785 8.207h-4.838V30.853l3.133-3.023a1.524 1.524 0 0 0-2.116-2.192l-2.541 2.451-2.54-2.451a1.524 1.524 0 1 0-2.116 2.192l3.133 3.023v13.175h-4.827c-.635-3.297-2.392-6.385-4.684-8.121zm-14.412 28.22a4.583 4.583 0 0 1 3.326-3.123l7.106-1.672 4.468 10.723a1.524 1.524 0 0 0 2.251.681l8.296-5.53 8.295 5.53a1.523 1.523 0 0 0 2.25-.68l4.469-10.724 7.105 1.672a4.583 4.583 0 0 1 3.327 3.123l3.016 10.826H10.682l3.016-10.826z"/></g><defs><clipPath id="a"><path fill="#fff" d="M0 0h78v78H0z"/></clipPath></defs></svg>
